src/asset/24px/angle-left-small.svg

<svg width="24" height="24" viewBox="0 0 24 24" fill="none" xmlns="http://www.w3.org/2000/svg">
<path fill-rule="evenodd" clip-rule="evenodd" d="M13.7168 16.7071C14.0944 16.3166 14.0944 15.6834 13.7168 15.2929L11.2168 12.7071C10.8393 12.3166 10.8393 11.6834 11.2168 11.2929L13.7168 8.70711C14.0944 8.31658 14.0944 7.68342 13.7168 7.29289C13.3393 6.90237 12.7271 6.90237 12.3495 7.29289L9.84953 9.87868C8.71683 11.0503 8.71682 12.9497 9.84953 14.1213L12.3495 16.7071C12.7271 17.0976 13.3393 17.0976 13.7168 16.7071Z" fill="#808080"/>
</svg>

<svg width="24" height="24" fill="none" xmlns="http://www.w3.org/2000/svg"><path fill-rule="evenodd" clip-rule="evenodd" d="M13.717 16.707a1.024 1.024 0 000-1.414l-2.5-2.586a1.025 1.025 0 010-1.414l2.5-2.586a1.024 1.024 0 000-1.414.944.944 0 00-1.367 0l-2.5 2.586a3.073 3.073 0 000 4.242l2.5 2.586c.377.39.99.39 1.367 0z" fill="gray"/></svg>
